X: 26104
T: McFadden's Own
R: reel
M: 4/4
K: Dmajor
|:~F2FD EA,~A,2|DFAF D2dB|AD (3FED EFGA|1 (3Bcd AG FDDE:|2 (3Bcd AG FDD2||
dBAB defe|dAFA BE ~E2|dBAB defe|dBAG FD ~D2|
dBAB defe|dAFA BE ~E2|~d2dc dfaf|dBAG FDDE||

